X:1
T:Title
%%score { 1 | ( 2 3 ) }
L:1/8
M:3/2
K:G
V:1 treble nm="Grand Piano"
V:2 bass 
V:3 bass 
V:1
 z4 z4[Q:1/4=144] [B,DG]4 | [B,D]2 [B,DG]2 [B,DG]4 [DB]4 | [B,D]2 [B,DG]2 [B,DG]4 B4 | %3
 A2 B2 A4 c4 | B2 c2 B4 d4 | d2 c2 B4 [CFA]4 | [B,EG]2 [A,^DF]2 [G,E]4 [CEA]4 | %7
 [B,DG]2 [A,CF]2 [G,B,G]4 [CEA]4 |[M:4/4] [B,DG]2 [A,DF]2 [B,DG]4 |[M:2/4] [DGB]4 | %10
[M:6/4] [FA]2 [FA]>[FA] [FA]2- [FA]2 [Ac]4 | B2 B>B B2- B2 d4 | e2 d2 B2- B2 d4 | %13
 [Fd]2 [Fc]2 [FA]2- [FA]2 [FA]3 c | B2 B>B B2- B2 [DFA]2 [DGB]2 | %15
 [EGd]3 [EGc] [EGc]2- [EGc]2 [CEA]4 | [B,DG]2 [B,DG]2 [DFB]2- [DFB]2 [CFA]4 |[M:4/4] [B,G]8 |] %18
V:2
 z4 z4 G,4 | G,2 G,,2 G,,4 G,4 | G,2 G,,2 G,,4 [G,D]4 | [D,F,D]2 [D,G,D]2 [D,F,D]4 [D,A,D]4 | %4
 [G,D]2 [G,E]2 [G,D]4 [G,B,D]4 | [B,DG]2 [A,DF]2 [G,DG]4[K:bass] D,4 | E,2 B,,2 C,4 A,,4 | %7
 D,2 D,2 E,4 C,4 |[M:4/4] D,2 D,2 G,,4 |[M:2/4] G,4 | %10
[M:6/4] [D,D]2 [D,D]>[D,D] [D,D]2- [D,D]2 [D,D]4 | %11
 [G,DG]2 [G,DG]>[G,DG] [G,DG]2- [G,DG]2 [G,B,G]4 | [G,CG]2 [G,B,G]2 [G,DG]2- [G,DG]2 [G,B,G]4 | %13
 [D,A,]2 [D,A,]2 [D,D]2- [D,D]2 z2 z[K:treble] A | %14
 [G,DG]2 [G,DG]>[G,DG] [G,DG]2- [G,DG]2[K:bass] D,2 G,2 | C,3 C, C,2- C,2 C,4 | %16
 D,2 D,2 D,2- D,2 D,4 |[M:4/4] G,,8 |] %18
V:3
 x12 | x12 | x12 | x12 | x12 | x8[K:bass] x4 | x12 | x12 |[M:4/4] x8 |[M:2/4] x4 |[M:6/4] x12 | %11
 x12 | x12 | z6 z2 [D,D]4[K:treble] | x8[K:bass] x4 | x12 | x12 |[M:4/4] x8 |] %18

